assets/icons/qvision/airplay.svg

<svg xmlns="http://www.w3.org/2000/svg" enable-background="new 0 0 24 24" height="24" viewBox="0 0 24 24" width="24"><rect fill="none" height="24" width="24"/><g><polygon points="6,22 18,22 12,16"/><path d="M21,3H3C1.9,3,1,3.9,1,5v12c0,1.1,0.9,2,2,2h4v-2H3V5h18v12h-4v2h4c1.1,0,2-0.9,2-2V5C23,3.9,22.1,3,21,3z"/></g></svg>

<svg width="24" height="24" viewBox="0 0 24 24" fill="none" xmlns="http://www.w3.org/2000/svg">
<g clip-path="url(#clip0_147_1374)">
<path d="M6 22H18L12 16L6 22Z" fill="#323232"/>
<path d="M21 3H3C1.9 3 1 3.9 1 5V17C1 18.1 1.9 19 3 19H7V17H3V5H21V17H17V19H21C22.1 19 23 18.1 23 17V5C23 3.9 22.1 3 21 3Z" fill="#323232"/>
</g>
<defs>
<clipPath id="clip0_147_1374">
<rect width="24" height="24" fill="white"/>
</clipPath>
</defs>
</svg>
